X:1636
T:Blue Dick. BF13.031
M:2/2
L:1/8
Q:200
S:J.Lishman(?)MS,c1825,Lakes,Browne Coll.
R:Rant
O:England
A:Lakes
Z:vmp.Cherri Graebe.
K:A major
ed|c2A2ecec|f2B2B2ed|c2A2dBcA|G2E2E2ed|!
c2A2ecec|d2B2fdfd|cABc defg|a2A2A2:|!
|:("!"3efg|a2A2agfe|a2c2e2 fg|a2A2agfe|d2B2f2 af|!
e2e2cAcA|f2f2dBdB|cAFDE2e2|c2A2A2:|]
W:untripleted semi quavers in ms. CGP. |]


